X: ~
T: The Dusty Miller
M: 9/8
L: 1/8
R: slip jig
K: G Major
|: B2 d d2 A B2 G | E2 A A2 B c2 A | B2 d d2 A B2 G | D2 G G2 A B2 G :|
|: B2 d e2 f g3 | a2 A A2 B c2 A | B2 d e2 f g2 a | g2 e d2 c B2 G :|
|: B3 B2 A G2 A | E2 A A2 B c2 A | B3 B2 A G2 A | D2 G G2 A B2 G :|
